X: 6864
T: Charlie O'Neill's
R: strathspey
M: 4/4
K: Gmajor
{c}B>E B2 cBc>A|{c}B>EB2 cBc>A|{c}B>E B2 cdc>B|Ad{e}dc B>G G2:|
g2 f>g B3 A|Ga{B}ag fdef|g2 fg B3 A|Gd{e}dc BG {A}G2|
g2 fg B3A|Ga{b}bg fdef|G>BdB cde>f|gb (3agf g4||

